X:1
T:Abide with Us, Our Savior
T:Text: Josua Stegmann, 1628; tr. composite Tune: Melchior Vulpius, 1609
T:76 76 CHRISTUS, DER IST MEIN LEBEN www.hymnary.org/text/abide_with_us_our_savior_nor_let_thy
T:Abide with Us, Our Savior
T:This hymn is in the public domain.  You may freely use this score for personal and congregational worship.  If you reproduce the score, please credit Hymnary.org as the source. 
T:This hymn is in the public domain.  You may freely use this score for personal and congregational worship.  If you reproduce the score, please credit Hymnary.org as the source. 
Z:This hymn is in the public domain.  You may freely use this score for personal and congregational worship.  If you reproduce the score, please credit Hymnary.org as the source.
%%score ( 1 2 ) ( 3 4 )
L:1/8
M:4/4
K:D
V:1 treble nm="SOPRANO ALTO" snm="S. A."
V:2 treble 
V:3 bass nm="TENOR BASS" snm="T. B."
V:4 bass 
V:1
"^1""^2""^3""^4" D2 | F2 E2 F2 G2 | A4 F2 B2 | A2 G2 F2 E2 | F6 |1 A2 | B2 c2 d2 c2 | B4 A2 F2 | %8
w: A-|bide with us, our|Sav- ior, let|not your mer- cy|cease;|from|Sa- tan's might de-|fend us, and|
w: A-|bide with us, our|Help- er, sus-|tain us by your|Word;|let|us and all your|peo- ple to|
w: A-|bide with us, Re-|deem- er, O|Light, e- ter- nal|Light;|your|truth di- rect and|guide us to|
w: To|Fa- ther, Son, and|Spir- it all|praise and glo- ry|be,|who|were and are for-|ev- er the\_e-|
 G2 F2 E2 E2 | D6 x2 |] %10
w: give our hearts your|peace.|
w: liv- ing faith be|stirred.|
w: flee from er- ror's|night.|
w: ter- nal One in|Three.|
V:2
 A,2 | D2 E2 D2 D2 | (D2 C2) D2 D2 | C2 B,C D2 C2 | D6 |1 D2 | D2 G2 F2 E2 | E4 C2 D2 | %8
 B,C D2 D2 C2 | D6 x2 |] %10
V:3
 F,2 | A,2 A,2 A,2 D,2 | (E,2 A,2) A,2 G,2 | E,2 G,2 A,2 A,2 | A,6 |1 A,2 | G,2 G,2 A,2 A,2 | %7
 (A,2 ^G,2) A,2 A,2 | G,2 A,2 B,2 A,2 | F,6 x2 |] %10
V:4
 D,2 | D,2 C,2 D,2 B,,2 | A,,4 D,2 G,,2 | A,,2 E,2 D,2 A,,2 | D,6 |1 F,2 | G,2 E,2 D,2 A,,2 | %7
 E,4 A,,2 D,2 | E,2 F,2 G,2 A,2 | D,6 x2 |] %10

